X:1996
T:FLANDERS1- Will you go to Flanders
O:england
S:Oswald's CPC, bk. 1, p. 36, c 1743
Q:1/4=120
L:1/8
M:C
K:G
G|Gddde2{e/f/}g2|d/B3/2 (A3/2G/)A3{d/e/}f|\
(gfg)af~2e3/2d/2|(e3/2f/)~e3/2d/d2(e/f/)|\
gfga~f2e3/2d/|eg {e/}dBd2(e3/2f/)|\
(gf)(ed)e2{e/f/}g2|d/B3/2 ~A3/2G/G3|]


